src/scalable/apps/preferences-desktop-plasma-theme.svg

<svg width="64" height="64" version="1.1" xmlns="http://www.w3.org/2000/svg">
 <defs>
  <linearGradient id="c" x1="13.229" x2="2.117" y1="297" y2="280.07" gradientTransform="matrix(4.0496 0 0 3.7796 -2.2867 -1058.5)" gradientUnits="userSpaceOnUse">
   <stop stop-color="#66bcff" offset="0"/>
   <stop stop-color="#b29aff" offset="1"/>
  </linearGradient>
 </defs>
 <g stroke-width="3.7796">
  <path d="m3.001 8.9992h58.002c0.55182 0 0.99781 0.44599 0.99781 0.99781v44.002a0.99781 0.99781 0 0 1-0.99781 1.0016h-58.002a0.99781 0.99781 0 0 1-1.0016-1.0016v-44.002c0-0.55182 0.44599-0.99781 1.0016-0.99781z" fill="url(#c)" style="paint-order:stroke markers fill"/>
  <rect x="5.9982" y="9.9971" width="3.9988" height="1.9994" ry="1.0016" opacity=".35" style="paint-order:stroke markers fill"/>
  <rect x="27.001" y="9.9971" width="10.001" height="1.9994" ry="1.0016" opacity=".35" style="paint-order:stroke markers fill"/>
  <rect x="57" y="9.9971" width="1.9994" height="1.9994" ry="1.0016" opacity=".35" style="paint-order:stroke markers fill"/>
  <rect x="53.001" y="9.9971" width="3.001" height="1.9994" ry="1.0016" opacity=".35" style="paint-order:stroke markers fill"/>
  <rect x="50" y="9.9971" width="1.9994" height="1.9994" ry="1.0016" opacity=".35" style="paint-order:stroke markers fill"/>
 </g>
 <path d="m15.002 51.039c-1.1077 0-2 0.89233-2 2v2.0098h38v-2.0098c0-1.1077-0.89233-2-2-2h-34z" fill="#fff" opacity=".35" stroke-width="3.7796" style="paint-order:stroke markers fill"/>
 <g fill="#ccdfff" stroke-width="3.7796">
  <rect x="17.001" y="48.001" width="5.0004" height="5.0004" ry=".49891" style="paint-order:stroke markers fill"/>
  <rect x="25.335" y="48.001" width="5.0004" height="5.0004" ry=".49891" style="paint-order:stroke markers fill"/>
  <rect x="33.669" y="48.001" width="5.0004" height="5.0004" ry=".49891" style="paint-order:stroke markers fill"/>
  <rect x="42.003" y="48.001" width="5.0004" height="5.0004" ry=".49891" style="paint-order:stroke markers fill"/>
 </g>
 <path d="m3.001 8.9992a0.99781 0.99781 0 0 0-1.0016 1.0016v2.9972h60.001v-2.9972a0.99781 0.99781 0 0 0-0.99781-1.0016z" opacity=".35" stroke-width="3.7796" style="paint-order:stroke markers fill"/>
 <path d="m26 20c-0.831 0-1.5 0.669-1.5 1.5s0.669 1.5 1.5 1.5 1.5-0.669 1.5-1.5-0.669-1.5-1.5-1.5zm9.4286 0-3.4286 3.4286 5.1429 5.1429-5.1429 5.1428 3.4286 3.4286 8.5714-8.5714-3.4286-3.4286zm-13.179 9c-1.2465 0-2.25 1.0035-2.25 2.25s1.0035 2.25 2.25 2.25 2.25-1.0035 2.25-2.25-1.0035-2.25-2.25-2.25zm6.75 9c-1.662 0-3 1.338-3 3s1.338 3 3 3 3-1.338 3-3-1.338-3-3-3z" fill="#fff"/>
</svg>

<svg width="64" height="64" xmlns="http://www.w3.org/2000/svg"><defs><linearGradient id="a" x1="13.229" x2="2.117" y1="297" y2="280.07" gradientTransform="matrix(4.0496 0 0 3.7796 -2.287 -1058.5)" gradientUnits="userSpaceOnUse"><stop stop-color="#66bcff" offset="0"/><stop stop-color="#b29aff" offset="1"/></linearGradient></defs><g stroke-width="3.78"><path d="M3.001 9h58.002c.552 0 .998.445.998.997v44.002a.998.998 0 0 1-.998 1.002H3.001a.998.998 0 0 1-1.002-1.002V9.997a.998.998 0 0 1 1.002-.998z" fill="url(#a)" style="paint-order:stroke markers fill"/><rect x="5.998" y="9.997" width="3.999" height="1.999" ry="1.002" opacity=".35" style="paint-order:stroke markers fill"/><rect x="27.001" y="9.997" width="10.001" height="1.999" ry="1.002" opacity=".35" style="paint-order:stroke markers fill"/><rect x="57" y="9.997" width="1.999" height="1.999" ry="1.002" opacity=".35" style="paint-order:stroke markers fill"/><rect x="53.001" y="9.997" width="3.001" height="1.999" ry="1.002" opacity=".35" style="paint-order:stroke markers fill"/><rect x="50" y="9.997" width="1.999" height="1.999" ry="1.002" opacity=".35" style="paint-order:stroke markers fill"/></g><path d="M15.002 51.039c-1.108 0-2 .892-2 2v2.01h38v-2.01c0-1.108-.892-2-2-2h-34z" fill="#fff" opacity=".35" style="paint-order:stroke markers fill"/><g fill="#ccdfff" stroke-width="3.78"><rect x="17.001" y="48.001" width="5" height="5" ry=".499" style="paint-order:stroke markers fill"/><rect x="25.335" y="48.001" width="5" height="5" ry=".499" style="paint-order:stroke markers fill"/><rect x="33.669" y="48.001" width="5" height="5" ry=".499" style="paint-order:stroke markers fill"/><rect x="42.003" y="48.001" width="5" height="5" ry=".499" style="paint-order:stroke markers fill"/></g><path d="M3.001 9a.998.998 0 0 0-1.002 1v2.998H62v-2.997a.998.998 0 0 0-.997-1.002z" opacity=".35" style="paint-order:stroke markers fill"/><path d="M26 20c-.831 0-1.5.669-1.5 1.5S25.169 23 26 23s1.5-.669 1.5-1.5S26.831 20 26 20zm9.429 0L32 23.429l5.143 5.143L32 33.714l3.429 3.429L44 28.572l-3.429-3.43zm-13.18 9C21.004 29 20 30.004 20 31.25s1.004 2.25 2.25 2.25 2.25-1.004 2.25-2.25S23.497 29 22.25 29zM29 38c-1.661 0-3 1.338-3 3s1.339 3 3 3 3-1.338 3-3-1.337-3-3-3z" fill="#fff"/></svg>
